src/topics/icons/testmunk.svg

<svg height="258" preserveAspectRatio="xMidYMid" viewBox="0 0 256 258" width="256" xmlns="http://www.w3.org/2000/svg"><g transform="translate(0 -1)"><path d="m237.132 193.477c1.639-67.31-3.433-133.74-3.433-138.719 9.656-9.681 38.756-29.044 9.79-48.41-28.965-19.363-38.891 19.363-38.891 29.045-18.365-7.778-57.666-9.145-76.605-9.145s-57.164 1.527-76.771 9.145c0-9.682-9.707-48.411-38.673-29.045s-.026 38.729 9.629 48.41c0 4.972-5.062 71.162-3.464 138.347 2.01 9.755 1.572 66.814 110.565 65.104 116.592.477 107.818-63.784 107.853-64.732" fill="#ccae8f"/><path d="m44.784 37.546s-5.287-14.332-15.837-7.884-.09 18.798-.09 18.798c1.632-2.17 12.014-9.3 15.927-10.914" fill="#af9079"/><path d="m210.911 37.546s5.287-14.332 15.837-7.884.09 18.798.09 18.798c-1.629-2.17-12.011-9.3-15.927-10.914" fill="#af9079"/><path d="m70.865 157.523c7.566-.733 13.113-6.202 12.39-12.215s-7.442-10.294-15.008-9.561-13.114 6.202-12.391 12.215 7.443 10.294 15.009 9.561" fill="#4c5b68"/><path d="m70.388 145.096c1.274.862 2.977.716 3.804-.326.828-1.042.466-2.586-.808-3.448-1.274-.863-2.978-.717-3.805.325-.827 1.043-.465 2.587.809 3.449" fill="#e8e7df"/><path d="m188.897 136.497c-7.566-.715-14.286 3.459-15.009 9.321-.723 5.863 4.824 11.195 12.39 11.91s14.286-3.459 15.009-9.322c.723-5.862-4.825-11.194-12.39-11.909" fill="#4c5b68"/><path d="m188.878 145.609c1.303.841 3.046.699 3.893-.317.846-1.017.476-2.522-.828-3.363-1.304-.84-3.046-.698-3.893.318-.847 1.017-.476 2.522.828 3.362" fill="#e8e7df"/><path d="m184.142 215.263c-25.45 8.874-41.574-6.283-55.777-26.545-14.206 20.262-30.327 35.419-55.777 26.545-3.694-1.288-3.021 1.909 0 3.706 20.004 11.892 37.203 10.908 55.777 7.107 18.576 3.801 35.773 4.783 55.777-7.107 3.021-1.797 3.694-4.994 0-3.706" fill="#af9079"/><path d="m109.042 209.439c.022 18.926.633 40.746 19.311 40.746l.009-62.085c-4.879 7.422-11.457 14.458-19.32 21.339" fill="#e8e7df"/><path d="m147.685 209.439c-.022 18.926-.632 40.746-19.311 40.746l-.009-62.085c4.88 7.422 11.457 14.458 19.32 21.339" fill="#fff"/><path d="m79.234 72.813c3.194 10.399 7.472 22.037 13.152 34.305 2.806 6.15 6.073 12.397 9.662 18.725 3.609 6.308 7.679 12.65 12.317 18.681 2.33 2.99 4.825 5.914 7.496 8.479 1.338 1.262 2.739 2.432 4.086 3.297 1.121.864 2.544 1.125 2.544 1.125-.017-.005 1.168-.258 1.803-.622.646-.37 1.007-.878 1.703-1.422 1.397-1.089 2.886-2.423 4.247-3.833 2.725-2.829 5.32-6.059 7.783-9.406 4.941-6.706 9.485-14.022 13.668-21.631 4.193-7.609 8.093-15.527 11.642-23.652 6.956-16.288 12.733-33.474 15.705-50.86.911-5.358 1.541-10.682 1.79-15.969-19.534-3.687-44.839-3.749-58.841-3.749-13.574 0-37.859.055-57.167 3.416.201 3.903.738 9.283 1.865 15.977 1.236 7.547 3.384 16.722 6.545 27.139" fill="#af9079"/><path d="m194.197 31.68c-2.33-.618-4.794-1.165-7.361-1.65-.248 5.287-.88 10.609-1.79 15.967-2.971 17.383-8.748 34.567-15.704 50.855-3.547 8.127-7.449 16.036-11.642 23.645-4.184 7.609-8.727 14.906-13.668 21.612-2.463 3.349-5.058 6.544-7.783 9.373-1.361 1.407-2.763 2.726-4.162 3.815-.696.547-1.395 1.017-2.039 1.39-.634.364-1.247.604-1.539.659-.068.019-.109.021-.128.021.064-.009.235 1.11-.023 1.106l.007 1.093h-.01l-.191-1.105c0-.005.03-.557.044-.554.017 0 .034-.271.05-.266l-.045-.148c-.035-.005-.071-.078-.12-.095-.088-.019-.204-.09-.32-.128-.497-.174-1.155-.53-1.821-.953-1.349-.866-2.751-2.045-4.086-3.307-2.671-2.565-5.167-5.491-7.496-8.484-4.639-6.03-8.711-12.372-12.317-18.683-3.589-6.326-6.857-12.575-9.662-18.725-5.68-12.268-9.959-23.906-13.153-34.305-3.16-10.419-5.308-19.592-6.541-27.139-1.127-6.694-1.665-12.074-1.866-15.977-2.912.507-5.701 1.094-8.332 1.762-3.002.763-5.784 1.638-8.27 2.641.511 4.072 1.321 9.056 2.666 14.802 1.941 8.201 4.858 17.916 9.123 28.605 4.233 10.699 9.721 22.392 16.488 34.675 3.421 6.118 7.06 12.446 11.177 18.795 4.115 6.349 8.517 12.827 13.636 19.173 2.564 3.179 5.282 6.331 8.471 9.335 1.601 1.507 3.31 2.983 5.394 4.336 1.06.668 2.209 1.317 3.648 1.835.367.126.741.245 1.153.345.199.052.415.097.633.138l.333.059.434.052.428.036.192.009.384.01.374-.01c.497-.018.963-.078 1.394-.159 1.74-.335 3.042-.951 4.222-1.583 1.162-.646 2.194-1.345 3.153-2.07 1.916-1.455 3.59-3.01 5.186-4.612 3.17-3.209 5.99-6.622 8.715-10.121 10.702-14.106 19.867-29.704 27.884-46.272 4.046-8.263 7.763-16.787 11.045-25.568 3.253-8.786 6.177-17.795 8.339-27.118 1.082-4.659 1.986-9.391 2.632-14.207.026-.188.045-.376.069-.564-2.195-.877-4.614-1.652-7.205-2.341" fill="#efd8c2"/><path d="m118.71 162.419c0-10.771 19.31-10.771 19.31 0 0 6.353-3.487 15.272-9.667 24.624-6.156-9.352-9.643-18.28-9.643-24.624" fill="#4c5b68"/><path d="m128.204 24.962c-132.388 0-127.668 55.181-127.668 103.143 0 27.879 1.106 43.718 15.563 61.68.767.952 1.939 1.178 4.08 1.079 0 0 6.412-.08 6.108-8.885l2.145-38.948c0-10.005 10.755-25.657 25.775-25.657h148.054c15.02 0 25.721 15.652 25.721 25.657l2.145 38.168c0 13.283 8.007 7.153 8.007 7.153 16.751-19.192 17.744-31.085 17.744-60.442 0-50.607-3.609-102.948-127.674-102.948" fill="#ededed"/><path d="m234.51 75.282c1.515-9.275-1.955-24.105-1.955-24.105-17.879-15.898-45.04-26.126-104.351-26.217-27.665-.043-49.5669565 2.1929947-67.153 6.876 0 0-7.411 12.625-7.821 24.826 18.085-6.401 42.367-10.159 74.974-10.159 57.295 0 88.889 11.598 106.306 28.779z" fill="#fff"/><path d="m99.895 117.477h59.191v-91.433c-14.206-.707-19.519-1.082-29.596-1.082s-20.125.375-29.595 1.082z" fill="#e53838"/><path d="m122.229 25.009c-1.035.015-2.06.036-3.076.057-.523.012-1.049.024-1.57.036-1.314.036-2.614.076-3.899.124-.687.026-1.362.059-2.041.088-.649.028-1.298.057-1.939.088-.801.04-1.594.08-2.382.126-.448.026-1.101.054-1.549.08-1.922.119-3.513.248-5.881.397v21.539c9.471-.685 19.524-1.043 29.596-1.043 10.079 0 15.39.366 29.595 1.05v-21.543c-4.735-.152-5.317-.285-7.28-.404-.436-.026-1.617-.053-2.058-.079-.797-.045-1.974-.088-2.786-.128-.628-.031-1.452-.06-2.086-.086-.898-.04-1.894-.076-2.808-.109-1.061-.038-2.176-.074-3.258-.102-.538-.014-1.106-.026-1.65-.038-.988-.022-1.992-.041-2.996-.055-.483-.007-.97-.014-1.46-.019-1.482-.017-2.979-.028-4.499-.028-1.536 0-3.047.011-4.543.028-.476.007-.955.014-1.43.021" fill="#ff4040"/><path d="m34.138 169.802.003-.053c0-.029.001-.056.001-.085z" fill="#979797"/><path d="m224.088 169.303c0 .037.003.072.003.109l.001.015z" fill="#979797"/><path d="m22.669 195.987c-1.985 0-4.841-2.265-6.23-5.31 0 0 4.796 1.401 7.427-1.416 1.126-1.206 2.309-3.987 2.404-6.652.036-1 .003-2.063.08-2.965l2.122-38.159c.924-12.731 13.348-24.772 27.611-24.405l143.958-.04h.007c13.871 0 26.733 10.477 27.778 23.896l2.244 36.624c.063.905.053 1.835.08 2.885.068 2.639 0 7.293 2.284 8.595 2.284 1.303 3.687.662 6.291-1.382 0 0 1.363 9.296-9.284 5.711-5.376-3.342-5.132-7.65-5.264-12.795-.025-.985-.049-1.914-.104-2.693l-2.299-36.491c-.811-10.409-10.85-18.58-21.726-18.58h-.006l-144.032.04-.038-.001c-.187-.005-.374-.007-.559-.007-10.948 0-20.033 8.422-20.803 19.408l-3.202 37.76c-.064.763-.096 1.639-.129 2.566-.155 4.337-.349 9.735-4.316 12.244-1.229.778-2.654 1.167-4.294 1.167" fill="#4c5a68"/></g></svg>

<?xml version="1.0" encoding="UTF-8" standalone="no"?>
<svg width="256px" height="258px" viewBox="0 0 256 258" version="1.1" xmlns="http://www.w3.org/2000/svg" xmlns:xlink="http://www.w3.org/1999/xlink" preserveAspectRatio="xMidYMid">
	<g transform="translate(0.000000, -1.000000)">
		<path d="M237.132,193.477 C238.771,126.167 233.699,59.737 233.699,54.758 C243.355,45.077 272.455,25.714 243.489,6.348 C214.524,-13.015 204.598,25.711 204.598,35.393 C186.233,27.615 146.932,26.248 127.993,26.248 C109.054,26.248 70.829,27.775 51.222,35.393 C51.222,25.711 41.515,-13.018 12.549,6.348 C-16.417,25.714 12.523,45.077 22.178,54.758 C22.178,59.73 17.116,125.92 18.714,193.105 C20.724,202.86 20.286,259.919 129.279,258.209 C245.871,258.686 237.097,194.425 237.132,193.477" fill="#CCAE8F"></path>
		<path d="M44.784,37.546 C44.784,37.546 39.497,23.214 28.947,29.662 C18.397,36.11 28.857,48.46 28.857,48.46 C30.489,46.29 40.871,39.16 44.784,37.546" fill="#AF9079"></path>
		<path d="M210.911,37.546 C210.911,37.546 216.198,23.214 226.748,29.662 C237.298,36.11 226.838,48.46 226.838,48.46 C225.209,46.29 214.827,39.16 210.911,37.546" fill="#AF9079"></path>
		<path d="M70.865,157.523 C78.431,156.79 83.978,151.321 83.255,145.308 C82.532,139.295 75.813,135.014 68.247,135.747 C60.681,136.48 55.133,141.949 55.856,147.962 C56.579,153.975 63.299,158.256 70.865,157.523" fill="#4C5B68"></path>
		<path d="M70.388,145.096 C71.662,145.958 73.365,145.812 74.192,144.77 C75.02,143.728 74.658,142.184 73.384,141.322 C72.11,140.459 70.406,140.605 69.579,141.647 C68.752,142.69 69.114,144.234 70.388,145.096" fill="#E8E7DF"></path>
		<path d="M188.897,136.497 C181.331,135.782 174.611,139.956 173.888,145.818 C173.165,151.681 178.712,157.013 186.278,157.728 C193.844,158.443 200.564,154.269 201.287,148.406 C202.01,142.544 196.462,137.212 188.897,136.497" fill="#4C5B68"></path>
		<path d="M188.878,145.609 C190.181,146.45 191.924,146.308 192.771,145.292 C193.617,144.275 193.247,142.77 191.943,141.929 C190.639,141.089 188.897,141.231 188.05,142.247 C187.203,143.264 187.574,144.769 188.878,145.609" fill="#E8E7DF"></path>
		<path d="M184.142,215.263 C158.692,224.137 142.568,208.98 128.365,188.718 C114.159,208.98 98.038,224.137 72.588,215.263 C68.894,213.975 69.567,217.172 72.588,218.969 C92.592,230.861 109.791,229.877 128.365,226.076 C146.941,229.877 164.138,230.859 184.142,218.969 C187.163,217.172 187.836,213.975 184.142,215.263" fill="#AF9079"></path>
		<path d="M109.042,209.439 C109.064,228.365 109.675,250.185 128.353,250.185 L128.362,188.1 C123.483,195.522 116.905,202.558 109.042,209.439" fill="#E8E7DF"></path>
		<path d="M147.685,209.439 C147.663,228.365 147.053,250.185 128.374,250.185 L128.365,188.1 C133.245,195.522 139.822,202.558 147.685,209.439" fill="#FFFFFF"></path>
		<path d="M79.234,72.813 C82.428,83.212 86.706,94.85 92.386,107.118 C95.192,113.268 98.459,119.515 102.048,125.843 C105.657,132.151 109.727,138.493 114.365,144.524 C116.695,147.514 119.19,150.438 121.861,153.003 C123.199,154.265 124.6,155.435 125.947,156.3 C127.068,157.164 128.491,157.425 128.491,157.425 C128.474,157.42 129.659,157.167 130.294,156.803 C130.94,156.433 131.301,155.925 131.997,155.381 C133.394,154.292 134.883,152.958 136.244,151.548 C138.969,148.719 141.564,145.489 144.027,142.142 C148.968,135.436 153.512,128.12 157.695,120.511 C161.888,112.902 165.788,104.984 169.337,96.859 C176.293,80.571 182.07,63.385 185.042,45.999 C185.953,40.641 186.583,35.317 186.832,30.03 C167.298,26.343 141.993,26.281 127.991,26.281 C114.417,26.281 90.132,26.336 70.824,29.697 C71.025,33.6 71.562,38.98 72.689,45.674 C73.925,53.221 76.073,62.396 79.234,72.813" fill="#AF9079"></path>
		<path d="M194.197,31.68 C191.867,31.062 189.403,30.515 186.836,30.03 C186.588,35.317 185.956,40.639 185.046,45.997 C182.075,63.38 176.298,80.564 169.342,96.852 C165.795,104.979 161.893,112.888 157.7,120.497 C153.516,128.106 148.973,135.403 144.032,142.109 C141.569,145.458 138.974,148.653 136.249,151.482 C134.888,152.889 133.486,154.208 132.087,155.297 C131.391,155.844 130.692,156.314 130.048,156.687 C129.414,157.051 128.801,157.291 128.509,157.346 C128.441,157.365 128.4,157.367 128.381,157.367 C128.445,157.358 128.616,158.477 128.358,158.473 L128.365,159.566 L128.355,159.566 L128.164,158.461 C128.164,158.456 128.194,157.904 128.208,157.907 C128.225,157.907 128.242,157.636 128.258,157.641 L128.213,157.493 C128.178,157.488 128.142,157.415 128.093,157.398 C128.005,157.379 127.889,157.308 127.773,157.27 C127.276,157.096 126.618,156.74 125.952,156.317 C124.603,155.451 123.201,154.272 121.866,153.01 C119.195,150.445 116.699,147.519 114.37,144.526 C109.731,138.496 105.659,132.154 102.053,125.843 C98.464,119.517 95.196,113.268 92.391,107.118 C86.711,94.85 82.432,83.212 79.238,72.813 C76.078,62.394 73.93,53.221 72.697,45.674 C71.57,38.98 71.032,33.6 70.831,29.697 C67.919,30.204 65.13,30.791 62.499,31.459 C59.497,32.222 56.715,33.097 54.229,34.1 C54.74,38.172 55.55,43.156 56.895,48.902 C58.836,57.103 61.753,66.818 66.018,77.507 C70.251,88.206 75.739,99.899 82.506,112.182 C85.927,118.3 89.566,124.628 93.683,130.977 C97.798,137.326 102.2,143.804 107.319,150.15 C109.883,153.329 112.601,156.481 115.79,159.485 C117.391,160.992 119.1,162.468 121.184,163.821 C122.244,164.489 123.393,165.138 124.832,165.656 C125.199,165.782 125.573,165.901 125.985,166.001 C126.184,166.053 126.4,166.098 126.618,166.139 L126.951,166.198 L127.385,166.25 L127.813,166.286 L128.005,166.295 L128.389,166.305 L128.763,166.295 C129.26,166.277 129.726,166.217 130.157,166.136 C131.897,165.801 133.199,165.185 134.379,164.553 C135.541,163.907 136.573,163.208 137.532,162.483 C139.448,161.028 141.122,159.473 142.718,157.871 C145.888,154.662 148.708,151.249 151.433,147.75 C162.135,133.644 171.3,118.046 179.317,101.478 C183.363,93.215 187.08,84.691 190.362,75.91 C193.615,67.124 196.539,58.115 198.701,48.792 C199.783,44.133 200.687,39.401 201.333,34.585 C201.359,34.397 201.378,34.209 201.402,34.021 C199.207,33.144 196.788,32.369 194.197,31.68" fill="#EFD8C2"></path>
		<path d="M118.71,162.419 C118.71,151.648 138.02,151.648 138.02,162.419 C138.02,168.772 134.533,177.691 128.353,187.043 C122.197,177.691 118.71,168.763 118.71,162.419" fill="#4C5B68"></path>
		<path d="M128.204,24.962 C-4.184,24.962 0.536,80.143 0.536,128.105 C0.536,155.984 1.642,171.823 16.099,189.785 C16.866,190.737 18.038,190.963 20.179,190.864 C20.179,190.864 26.591,190.784 26.287,181.979 L28.432,143.031 C28.432,133.026 39.187,117.374 54.207,117.374 L202.261,117.374 C217.281,117.374 227.982,133.026 227.982,143.031 L230.127,181.199 C230.127,194.482 238.134,188.352 238.134,188.352 C254.885,169.16 255.878,157.267 255.878,127.91 C255.878,77.303 252.269,24.962 128.204,24.962" fill="#EDEDED"></path>
		<path d="M234.51,75.282 C236.025,66.007 232.555,51.177 232.555,51.177 C214.676,35.279 187.515,25.051 128.204,24.96 C100.539,24.917 78.6370435,27.1529947 61.051,31.836 C61.051,31.836 53.64,44.461 53.23,56.662 C71.315,50.261 95.597,46.503 128.204,46.503 C185.499,46.503 217.093,58.101 234.51,75.282 Z" fill="#FFFFFF"></path>
		<path d="M99.895,117.477 L159.086,117.477 L159.086,26.044 C144.88,25.337 139.567,24.962 129.49,24.962 C119.413,24.962 109.365,25.337 99.895,26.044 L99.895,117.477" fill="#E53838"></path>
		<path d="M122.229,25.009 C121.194,25.024 120.169,25.045 119.153,25.066 C118.63,25.078 118.104,25.09 117.583,25.102 C116.269,25.138 114.969,25.178 113.684,25.226 C112.997,25.252 112.322,25.285 111.643,25.314 C110.994,25.342 110.345,25.371 109.704,25.402 C108.903,25.442 108.11,25.482 107.322,25.528 C106.874,25.554 106.221,25.582 105.773,25.608 C103.851,25.727 102.26,25.856 99.892,26.005 L99.892,47.544 C109.363,46.859 119.416,46.501 129.488,46.501 C139.567,46.501 144.878,46.867 159.083,47.551 L159.083,26.008 C154.348,25.856 153.766,25.723 151.803,25.604 C151.367,25.578 150.186,25.551 149.745,25.525 C148.948,25.48 147.771,25.437 146.959,25.397 C146.331,25.366 145.507,25.337 144.873,25.311 C143.975,25.271 142.979,25.235 142.065,25.202 C141.004,25.164 139.889,25.128 138.807,25.1 C138.269,25.086 137.701,25.074 137.157,25.062 C136.169,25.04 135.165,25.021 134.161,25.007 C133.678,25 133.191,24.993 132.701,24.988 C131.219,24.971 129.722,24.96 128.202,24.96 C126.666,24.96 125.155,24.971 123.659,24.988 C123.183,24.995 122.704,25.002 122.229,25.009" fill="#FF4040"></path>
		<path d="M34.138,169.802 L34.141,169.749 C34.141,169.72 34.142,169.693 34.142,169.664 L34.138,169.802" fill="#979797"></path>
		<path d="M224.088,169.303 C224.088,169.34 224.091,169.375 224.091,169.412 L224.092,169.427 L224.088,169.303" fill="#979797"></path>
		<path d="M22.669,195.987 C20.684,195.987 17.828,193.722 16.439,190.677 C16.439,190.677 21.235,192.078 23.866,189.261 C24.992,188.055 26.175,185.274 26.27,182.609 C26.306,181.609 26.273,180.546 26.35,179.644 L28.472,141.485 C29.396,128.754 41.82,116.713 56.083,117.08 L200.041,117.04 L200.048,117.04 C213.919,117.04 226.781,127.517 227.826,140.936 L230.07,177.56 C230.133,178.465 230.123,179.395 230.15,180.445 C230.218,183.084 230.15,187.738 232.434,189.04 C234.718,190.343 236.121,189.702 238.725,187.658 C238.725,187.658 240.088,196.954 229.441,193.369 C224.065,190.027 224.309,185.719 224.177,180.574 C224.152,179.589 224.128,178.66 224.073,177.881 L221.774,141.39 C220.963,130.981 210.924,122.81 200.048,122.81 L200.042,122.81 L56.01,122.85 L55.972,122.849 C55.785,122.844 55.598,122.842 55.413,122.842 C44.465,122.842 35.38,131.264 34.61,142.25 L31.408,180.01 C31.344,180.773 31.312,181.649 31.279,182.576 C31.124,186.913 30.93,192.311 26.963,194.82 C25.734,195.598 24.309,195.987 22.669,195.987" fill="#4C5A68"></path>
	</g>
</svg>
